btlcenter/img/icon_videocamera.svg

<svg fill="none" height="50" viewBox="0 0 50 50" width="50" xmlns="http://www.w3.org/2000/svg"><g fill="#000"><path d="m42.5977 8.71016c-.2297-.14297-.518-.15547-.7602-.03438l-3.6031 1.80152c-.2141-1.07261-1.1617-1.88355-2.2969-1.88355h-4.3641l-6.0211-6.02109c-.1461-.14688-.3445-.22891-.5523-.22891h-5.6125c-.3234-.90703-1.1828-1.5625-2.2-1.5625h-7.8125c-1.29219 0-2.34375 1.05156-2.34375 2.34375s1.05156 2.34375 2.34375 2.34375h7.8125c1.0172 0 1.8766-.65547 2.2-1.5625h5.2891l4.6875 4.6875h-13.7391c-1.2922 0-2.3438 1.05156-2.3438 2.34375v2.3437h-2.0203l-2.89606-2.896c-.22343-.2235-.55859-.2899-.85156-.1696-.29219.1211-.48203.4063-.48203.7219v12.5c0 .3156.18984.6008.48203.7219.09688.0398.19844.0594.29922.0594.20312 0 .40312-.0797.55234-.229l2.89606-2.896h2.0203v2.3437c0 1.2922 1.0516 2.3437 2.3438 2.3437h3.125v2.3438c0 .4312.3492.7812.7812.7812h.7813v2.3438c0 .4312.3492.7812.7813.7812h1.5624v2.0204l-13.83354 13.8336c-.22344.2234-.29063.5593-.16953.8515.12031.2914.40625.4821.72187.4821h4.6875c.2078 0 .4063-.0821.5523-.229l8.0414-8.0414v7.4891c0 .4313.3493.7813.7813.7813h3.125c.432 0 .7813-.35.7813-.7813v-7.4891l8.0414 8.0414c.146.1469.3445.229.5523.229h4.6875c.3156 0 .6016-.1907.7219-.4821.1211-.2922.0539-.6281-.1696-.8515l-13.8335-13.8336v-2.0204h1.5624c.4321 0 .7813-.35.7813-.7812v-2.3438h.7813c.432 0 .7812-.35.7812-.7812v-2.3438h4.6875c1.2922 0 2.3437-1.0515 2.3437-2.3437v-8.8922l3.5571 1.7781c.1101.0555.2297.0828.3492.0828.143 0 .2852-.039.4102-.1164.2304-.1429.3711-.3937.3711-.6648v-6.25c0-.27109-.1407-.52187-.3711-.66484zm-25.4102-4.80391h-7.8125c-.43125 0-.78125-.35078-.78125-.78125s.35-.78125.78125-.78125h7.8125c.4312 0 .7813.35078.7813.78125s-.3501.78125-.7813.78125zm-7.0313 16.08285-1.56245 1.5625v-8.7282l1.56245 1.5625zm1.5626-.4579v-4.6874h1.5624v4.6874zm2.0203 28.125h-2.4782l11.3953-11.3953v2.4782zm25 0h-2.4782l-8.9171-8.9171v-2.4782zm-12.9579 0h-1.5624v-15.625h1.5624zm2.3438-17.1874h-6.25v-1.5626h6.25zm1.5625-3.125h-9.375v-1.5626h9.375zm7.0313-3.9063c0 .4305-.3501.7813-.7813.7813h-20.3125c-.4312 0-.7812-.3508-.7812-.7813v-12.5c0-.4305.35-.7813.7812-.7813h20.3125c.4312 0 .7813.3508.7813.7813zm4.6874-9.0766-3.125-1.5625v-.5968l3.125-1.5625z"/><path d="m27.3438 15.625v-3.125c0-.4312-.3493-.7812-.7813-.7812h-9.375c-.432 0-.7813.35-.7813.7812v3.125c0 .4313.3493.7812.7813.7812h9.375c.432 0 .7813-.3499.7813-.7812zm-1.5626-.7812h-7.8124v-1.5626h7.8124z"/><path d="m32.8125 17.9688c-1.2922 0-2.3437 1.0515-2.3437 2.3437s1.0515 2.3437 2.3437 2.3437 2.3437-1.0515 2.3437-2.3437-1.0515-2.3437-2.3437-2.3437zm0 3.125c-.4312 0-.7813-.3508-.7813-.7813s.3501-.7813.7813-.7813c.4313 0 .7813.3508.7813.7813s-.35.7813-.7813.7813z"/><path d="m26.5625 17.9688c-1.2922 0-2.3437 1.0515-2.3437 2.3437s1.0515 2.3437 2.3437 2.3437 2.3437-1.0515 2.3437-2.3437-1.0515-2.3437-2.3437-2.3437zm0 3.125c-.4312 0-.7813-.3508-.7813-.7813s.3501-.7813.7813-.7813c.4313 0 .7813.3508.7813.7813s-.35.7813-.7813.7813z"/><path d="m32.0312 14.8438h1.5626v1.5624h-1.5626z"/><path d="m32.0312 11.7188h1.5626v1.5624h-1.5626z"/></g></svg>

<svg width="50" height="50" viewBox="0 0 50 50" fill="none" xmlns="http://www.w3.org/2000/svg">
<path d="M42.5977 8.71016C42.368 8.56719 42.0797 8.55469 41.8375 8.67578L38.2344 10.4773C38.0203 9.40469 37.0727 8.59375 35.9375 8.59375H31.5734L25.5523 2.57266C25.4062 2.42578 25.2078 2.34375 25 2.34375H19.3875C19.0641 1.43672 18.2047 0.78125 17.1875 0.78125H9.375C8.08281 0.78125 7.03125 1.83281 7.03125 3.125C7.03125 4.41719 8.08281 5.46875 9.375 5.46875H17.1875C18.2047 5.46875 19.0641 4.81328 19.3875 3.90625H24.6766L29.3641 8.59375H15.625C14.3328 8.59375 13.2812 9.64531 13.2812 10.9375V13.2812H11.2609L8.36484 10.3852C8.14141 10.1617 7.80625 10.0953 7.51328 10.2156C7.22109 10.3367 7.03125 10.6219 7.03125 10.9375V23.4375C7.03125 23.7531 7.22109 24.0383 7.51328 24.1594C7.61016 24.1992 7.71172 24.2188 7.8125 24.2188C8.01562 24.2188 8.21562 24.1391 8.36484 23.9898L11.2609 21.0938H13.2812V23.4375C13.2812 24.7297 14.3328 25.7812 15.625 25.7812H18.75V28.125C18.75 28.5562 19.0992 28.9062 19.5312 28.9062H20.3125V31.25C20.3125 31.6812 20.6617 32.0312 21.0938 32.0312H22.6562V34.0516L8.82266 47.8852C8.59922 48.1086 8.53203 48.4445 8.65313 48.7367C8.77344 49.0281 9.05938 49.2188 9.375 49.2188H14.0625C14.2703 49.2188 14.4688 49.1367 14.6148 48.9898L22.6562 40.9484V48.4375C22.6562 48.8688 23.0055 49.2188 23.4375 49.2188H26.5625C26.9945 49.2188 27.3438 48.8688 27.3438 48.4375V40.9484L35.3852 48.9898C35.5312 49.1367 35.7297 49.2188 35.9375 49.2188H40.625C40.9406 49.2188 41.2266 49.0281 41.3469 48.7367C41.468 48.4445 41.4008 48.1086 41.1773 47.8852L27.3438 34.0516V32.0312H28.9062C29.3383 32.0312 29.6875 31.6812 29.6875 31.25V28.9062H30.4688C30.9008 28.9062 31.25 28.5562 31.25 28.125V25.7812H35.9375C37.2297 25.7812 38.2812 24.7297 38.2812 23.4375V14.5453L41.8383 16.3234C41.9484 16.3789 42.068 16.4062 42.1875 16.4062C42.3305 16.4062 42.4727 16.3672 42.5977 16.2898C42.8281 16.1469 42.9688 15.8961 42.9688 15.625V9.375C42.9688 9.10391 42.8281 8.85313 42.5977 8.71016ZM17.1875 3.90625H9.375C8.94375 3.90625 8.59375 3.55547 8.59375 3.125C8.59375 2.69453 8.94375 2.34375 9.375 2.34375H17.1875C17.6187 2.34375 17.9688 2.69453 17.9688 3.125C17.9688 3.55547 17.6187 3.90625 17.1875 3.90625ZM10.1562 19.9891L8.59375 21.5516V12.8234L10.1562 14.3859V19.9891ZM11.7188 19.5312V14.8438H13.2812V19.5312H11.7188ZM13.7391 47.6562H11.2609L22.6562 36.2609V38.7391L13.7391 47.6562ZM38.7391 47.6562H36.2609L27.3438 38.7391V36.2609L38.7391 47.6562ZM25.7812 47.6562H24.2188V32.0312H25.7812V47.6562ZM28.125 30.4688H21.875V28.9062H28.125V30.4688ZM29.6875 27.3438H20.3125V25.7812H29.6875V27.3438ZM36.7188 23.4375C36.7188 23.868 36.3687 24.2188 35.9375 24.2188H15.625C15.1938 24.2188 14.8438 23.868 14.8438 23.4375V10.9375C14.8438 10.507 15.1938 10.1562 15.625 10.1562H35.9375C36.3687 10.1562 36.7188 10.507 36.7188 10.9375V23.4375ZM41.4062 14.3609L38.2812 12.7984V12.2016L41.4062 10.6391V14.3609Z" fill="black"/>
<path d="M27.3438 15.625V12.5C27.3438 12.0688 26.9945 11.7188 26.5625 11.7188H17.1875C16.7555 11.7188 16.4062 12.0688 16.4062 12.5V15.625C16.4062 16.0563 16.7555 16.4062 17.1875 16.4062H26.5625C26.9945 16.4062 27.3438 16.0563 27.3438 15.625ZM25.7812 14.8438H17.9688V13.2812H25.7812V14.8438Z" fill="black"/>
<path d="M32.8125 17.9688C31.5203 17.9688 30.4688 19.0203 30.4688 20.3125C30.4688 21.6047 31.5203 22.6562 32.8125 22.6562C34.1047 22.6562 35.1562 21.6047 35.1562 20.3125C35.1562 19.0203 34.1047 17.9688 32.8125 17.9688ZM32.8125 21.0938C32.3813 21.0938 32.0312 20.743 32.0312 20.3125C32.0312 19.882 32.3813 19.5312 32.8125 19.5312C33.2438 19.5312 33.5938 19.882 33.5938 20.3125C33.5938 20.743 33.2438 21.0938 32.8125 21.0938Z" fill="black"/>
<path d="M26.5625 17.9688C25.2703 17.9688 24.2188 19.0203 24.2188 20.3125C24.2188 21.6047 25.2703 22.6562 26.5625 22.6562C27.8547 22.6562 28.9062 21.6047 28.9062 20.3125C28.9062 19.0203 27.8547 17.9688 26.5625 17.9688ZM26.5625 21.0938C26.1313 21.0938 25.7812 20.743 25.7812 20.3125C25.7812 19.882 26.1313 19.5312 26.5625 19.5312C26.9938 19.5312 27.3438 19.882 27.3438 20.3125C27.3438 20.743 26.9938 21.0938 26.5625 21.0938Z" fill="black"/>
<path d="M32.0312 14.8438H33.5938V16.4062H32.0312V14.8438Z" fill="black"/>
<path d="M32.0312 11.7188H33.5938V13.2812H32.0312V11.7188Z" fill="black"/>
</svg>
